X:2119 
T:Arrane ny skeddan 
C:Tom Kermode, Bradda 
C:Traditional
O:Isle of Man
Z:Clague collection
B:Kiaull Vannin #119 
M:3/4 
L:1/8 
K:D
E2|G2 G2 AG|F2 F2 GF|E2 e2 e2|d2 B2 G>A|B>G !fermata!E2 F>G|A>F !fermata!D>E F>A|G>F E2 D2|E4|| 

